X:969
T:Mary of Argyll
C:Joe Buchanan's Scottish Tome - Page 563.1
I:563 1
Z:Carl Allison
R:Waltz
L:1/4
M:3/4
K:G
B/c/ | "G"d2 B | "G7"A2 G | "C"E G2- | "G"G2 B | "Am"A e2 | "D7"d2 c | "G"B3- | B "Em"B "Cm"c | 
"G"d2 B | "G7"A2 G | "C"E G2- | "Eb"G G A | "G"B2 D | "D7"B2 A | "G"G3- | "G"G2 "Em"B |
"Em"B2 e | "B7"^d2 e | f "B7"B2- | B2 "B7"B | "Em"B2 c | "B7"B2 A | "Em"G3 | "Em"G2 B |
"A7"A2 A | "E7"B2 "A7"^c | "D"d A2 | "D"A2 A | "D"A2 d | "A7"f2 e | "D7"d3- | d "D7"(B c) |
"G"d2 "G7"B | "G"A2 "C"G | E "C"G2- | G2 "G"B | "Am"A e2 | "D7"d2 c | "G"B3- | B "G"B "Em"c |
"G"d2 B | "G7"A2 G | "C"c>B c/d/ | e "Gdim"g e | "G"d B2 | "D7"A2 G | G3- | "G"G2 |]

